X: 20553
Q: "Slow and expressive."
M: C
L: 1/8
K: G
(GA) |\
(GA)(Bc) (deg)G | E2(G>A) G2(GA) |\
(GA)(Bc) (d3/e//f// g)G | E2G>{B}A G2 |]
(gf) |\
e3d (ef)(ga) | (b>ag)e d3d |\
(g>ab)a (b>ag)e | g2(d>e) d2(ga) |\
(bag)e g3e | (d<B)(A>G) E2(DE) |\
(GA)(Bc) (d3/e//f//) gG | E2G>{B}A G2 |]


